X: 4
T: Dancing Dog, The
C: Cary Reid
Z: birlibirdie
S: https://thesession.org/tunes/22#setting49858
R: slide
M: 12/8
L: 1/8
K: Amix
|:A2B cBA|eAB cBA|ded cBG|EAG A3|
A2B cBA|eAB cBA|fga efd|BAE A3:||
|:{cd}eec cde|Bdg Bdg|{cd}eec cde|Bdg a2a|
bag fga|gfe fed|edc BAG|EAG A3:||

%-------------------- TUNE SEPARATOR --------------------%

